X:1
T:Orphan, The
R:jig
D:Kevin Burke: Up Close
Z:id:hn-jig-121
M:6/8
L:1/8
K:Edor
~E3 EDB,|GFG AGA|~B3 ABA|GEF EDB,|
~A,3 EDB,|~G3 AGA|BdB ABA|1 GED EGF:|2 GED E2B|]
ege dBA|GAB d2d|e/f/ge dBA|BGE DB,D|
EAG EDB,|~G3 AGA|BdB ABA|1 GED E2B:|2 GED EGF|]
</abc>
